X: 43234
T: Within A Mile Of Edinburgh
R: strathspey
M: 4/4
K: Gmajor
B>c|d<BA>B G2 B>G|E<Gd>B A2 G>A|B<de>g d<BA>G|B2 A2 A2
B>c|d<BA>B G2 B>G|E<Gd>B A2 G>A|B<de>g d<BA>B|G4 G2||
z2|G>AB>c d<B g2|G>AB>c d<B g2|G>AG>E D3G|B>GB<d e2 g2|
G>AB>c d<B g2|G>AB>c d<B g2|G>AG>E D3G|B<dA>B G2||

